X:1
T: Kelso Racetrack
C:Bruce Shawyer
R:Reel
Q:232
K:D
M:4/4
L:1/16
F4|:"D"A4F2G2 A4B4|"D"A4F2G2 A4B4|"D"A4F2G2A4d4|"Em"e2f2 e2d2 "A7"c4A4|
"D"A4F2G2A4B4|"D"A4F2G2A4d4|"G"B4A2B2 "Em"g4e4|"A7"a2g2 f2e2"D"d8:|
|:"D"d4e2d2f4d4|"A7"e4d4 "D"f4d4|"D"d4e2d2f4d4|"Em"e2f2 g2f2 "A7"e4A4|
"D"d4e2d2f4d4|"A7"e4d4 "D"f4d4|"D"d4e2d2 "Em"g4e4|"A7"a2g2 f2e2 "D"d8:|
